dist/img/svg/partners__slide__3.svg

<svg width="184" height="53" viewBox="0 0 184 53" fill="none" xmlns="http://www.w3.org/2000/svg">
<g opacity="0.7">
<path d="M30.9991 35.7998L24.7998 41.9984L1.86727 42L0 40.1321V17.1999L6.20019 11H29.1321L30.9991 12.867V35.7998Z" fill="black"/>
<path d="M29.1321 11L22.1598 17.9723V28.1492L16.4483 20.3008H4.40883V22.767H7.95777V32.1746L0.000610352 40.1321V42L1.86726 41.9984L10.6321 33.2336V22.767H14.1798V32.6989H16.8201V24.8502L22.5319 32.6989H24.7998V19.0662L30.9994 12.867L30.999 11H29.1321Z" fill="white"/>
<path d="M40.9185 23.3115H37.1989V20.3003H48.0754V23.3115H44.3562V32.6985H40.9188L40.9185 23.3115Z" fill="black"/>
<path d="M49.8824 20.3008H59.8543V23.222H53.2833V25.1015H59.2341V27.8121H53.2833V29.7771H59.9434V32.6993H49.8824V20.3008Z" fill="black"/>
<path d="M65.6011 26.3938L61.526 20.3008H65.4771L67.6731 23.7897L69.8884 20.3008H73.7486L69.676 26.3585L73.927 32.699H69.9762L67.6015 28.9622L65.2112 32.699H61.3495L65.6011 26.3938Z" fill="black"/>
<path d="M75.5518 20.3008H78.9883V24.9415H83.3993V20.3008H86.8357V32.699H83.3993V27.987H78.9883V32.699H75.5518V20.3008Z" fill="black"/>
<path d="M88.8996 26.5C88.8996 22.9388 91.7692 20.052 95.5959 20.052C99.4211 20.052 102.255 22.9042 102.255 26.5C102.255 30.0605 99.3858 32.9476 95.5606 32.9476C91.7327 32.9479 88.8996 30.0948 88.8996 26.5ZM98.7478 26.5C98.7478 24.7105 97.4551 23.151 95.5603 23.151C93.6812 23.151 92.4241 24.6746 92.4241 26.5C92.4241 28.2894 93.718 29.8461 95.5956 29.8461C97.4895 29.8464 98.7478 28.3244 98.7478 26.5Z" fill="black"/>
<path d="M104.335 20.3008H107.773V24.9415H112.182V20.3008H115.62V32.699H112.182V27.987H107.773V32.699H104.335V20.3008Z" fill="black"/>
<path d="M118.293 20.3008H121.695V27.2787L126.497 20.3008H129.701V32.699H126.3V25.7208L121.499 32.699H118.293V20.3008Z" fill="black"/>
<path d="M132.376 20.3008H135.812V25.3317L140.081 20.3008H144.155L139.462 25.6317L144.314 32.6993H140.188L137.071 28.0948L135.812 29.4931V32.6996H132.376V20.3008Z" fill="black"/>
<path d="M144.341 26.5C144.341 22.9388 147.209 20.052 151.035 20.052C154.862 20.052 157.697 22.9042 157.697 26.5C157.697 30.0605 154.826 32.9476 151.001 32.9476C147.174 32.9479 144.341 30.0948 144.341 26.5ZM154.187 26.5C154.187 24.7105 152.897 23.151 151.001 23.151C149.122 23.151 147.866 24.6746 147.866 26.5C147.866 28.2894 149.158 29.8461 151.035 29.8461C152.931 29.8464 154.187 28.3244 154.187 26.5Z" fill="black"/>
<path d="M173.05 20.3008H176.486V24.1962H178.364C181.34 24.1962 183.52 25.6145 183.52 28.4114C183.52 31.0879 181.571 32.6993 178.542 32.6993H173.05V20.3008ZM178.276 29.8124C179.409 29.8124 180.083 29.2984 180.083 28.3245C180.083 27.4568 179.409 26.8897 178.293 26.8897H176.486V29.8124H178.276Z" fill="black"/>
<path d="M160.739 20.3008V25.7398C160.739 27.0253 160.609 28.8847 159.76 29.5425C159.362 29.8506 158.705 30.0868 158.288 30.0868V33.0099H158.614C159.803 33.0099 161.134 32.5321 161.645 32.2075C163.718 30.8917 163.974 28.3889 163.974 25.5617V23.3117H166.94V32.6987H170.377V20.3008H160.739Z" fill="black"/>
</g>
</svg>

<svg width="184" height="53" viewBox="0 0 184 53" fill="none" xmlns="http://www.w3.org/2000/svg"><g opacity=".7"><path d="M31 35.8l-6.2 6.198L1.867 42 0 40.132V17.2L6.2 11h22.932L31 12.867V35.8z" fill="#000"/><path d="M29.132 11l-6.972 6.972V28.15l-5.712-7.848H4.408v2.466h3.55v9.408L0 40.132V42l1.866-.002 8.765-8.764V22.767h3.548v9.932h2.64V24.85l5.712 7.849H24.8V19.066l6.2-6.199L30.998 11h-1.867z" fill="#fff"/><path d="M40.919 23.311h-3.72v-3.01h10.876v3.01h-3.719V32.7H40.92v-9.387zm8.963-3.011h9.972v2.922h-6.57v1.88h5.95v2.71h-5.95v1.965h6.66V32.7H49.881V20.301zm15.719 6.094L61.526 20.3h3.951l2.196 3.489 2.215-3.49h3.86l-4.072 6.058 4.251 6.341h-3.95L67.6 28.962l-2.39 3.737h-3.86l4.251-6.305zm9.951-6.094h3.436v4.642H83.4V20.3h3.437v12.398H83.4v-4.712h-4.41v4.712h-3.437V20.301zM88.9 26.5c0-3.561 2.87-6.448 6.696-6.448 3.825 0 6.659 2.852 6.659 6.448 0 3.56-2.87 6.448-6.694 6.448-3.828 0-6.661-2.853-6.661-6.448zm9.848 0c0-1.79-1.293-3.349-3.188-3.349-1.879 0-3.136 1.524-3.136 3.349 0 1.79 1.294 3.346 3.172 3.346 1.894 0 3.152-1.522 3.152-3.346zm5.587-6.2h3.438v4.642h4.409V20.3h3.438v12.398h-3.438v-4.712h-4.409v4.712h-3.438V20.301zm13.958 0h3.402v6.979l4.802-6.978h3.204v12.398H126.3v-6.978l-4.801 6.978h-3.206V20.301zm14.083 0h3.436v5.032l4.269-5.031h4.074l-4.693 5.33 4.852 7.068h-4.126l-3.117-4.604-1.259 1.398V32.7h-3.436V20.3zm11.965 6.2c0-3.561 2.868-6.448 6.694-6.448 3.827 0 6.662 2.852 6.662 6.448 0 3.56-2.871 6.448-6.696 6.448-3.827 0-6.66-2.853-6.66-6.448zm9.846 0c0-1.79-1.29-3.349-3.186-3.349-1.879 0-3.135 1.524-3.135 3.349 0 1.79 1.292 3.346 3.169 3.346 1.896 0 3.152-1.522 3.152-3.346zm18.863-6.2h3.436v3.896h1.878c2.976 0 5.156 1.418 5.156 4.215 0 2.677-1.949 4.288-4.978 4.288h-5.492V20.301zm5.226 9.512c1.133 0 1.807-.514 1.807-1.488 0-.867-.674-1.434-1.79-1.434h-1.807v2.922h1.79zM160.739 20.3v5.44c0 1.285-.13 3.145-.979 3.803-.398.308-1.055.544-1.472.544v2.923h.326c1.189 0 2.52-.478 3.031-.802 2.073-1.316 2.329-3.82 2.329-6.646v-2.25h2.966v9.387h3.437V20.3h-9.638z" fill="#000"/></g></svg>
